X: 18
T: The Spanish Patriots
%R: reel
B: Cahusac "Annual Collection of Twenty-four favorite Country Dances For the Year 1809", p.9 #2
F: http://imslp.org/wiki/24_Country_Dances_for_the_Year_1809_%28Various%29
F: http://javanese.imslp.info/files/imglnks/usimg/0/0d/IMSLP351863-PMLP71785-wm_cahusac_24_dances_1809.pdf
Z: 2015 by John Chambers  <jc:trillian.mit.edu>
M: 2/4
L: 1/16
K: C
% - - - - - - - - - - - - - - - - - - - - - - - - - - - - -
|:\
(cBcd) ceGB | (cBcd) cege |\
(cBcd) ceGc | AcBd c2c'2 H:|\
|:\
(d^cde) d2g2 | d2a2d2b2 |\
(d^cde) d2g2 | bag^f "_D.C."g4 :|
% - - - - - - - - - - Dance description - - - - - - - - - -
%%begintext align
%% Hands 3 on the Lady's side, same on
%% Gent.s side, Down the mid: up again, Alle.me
%%endtext

%%sep 1 1 500
%%sep 1 1 500
